public/flags/NE.svg

<svg fill="none" height="53" viewBox="0 0 61 53" width="61" xmlns="http://www.w3.org/2000/svg" xmlns:xlink="http://www.w3.org/1999/xlink"><mask id="a" height="43" maskUnits="userSpaceOnUse" width="59" x="1" y="3"><rect fill="#fff" height="41.4393" rx="3.7125" stroke="#fff" stroke-width="1.06071" width="57.9393" x="1.53036" y="3.53036"/></mask><rect fill="#fff" height="41.4393" rx="3.7125" stroke="#f5f5f5" stroke-width="1.06071" width="57.9393" x="1.53036" y="3.53036"/><g clip-rule="evenodd" fill-rule="evenodd" mask="url(#a)"><path d="m1 17.1667h59v-14.1667h-59z" fill="#f0642f"/><path d="m1 45.5h59v-14.1667h-59z" fill="#2dcc45"/><path d="m30.4999 29.9166c3.1033 0 5.6191-2.537 5.6191-5.6666s-2.5158-5.6667-5.6191-5.6667-5.619 2.5371-5.619 5.6667 2.5157 5.6666 5.619 5.6666z" fill="#e85c27"/></g></svg>

<svg width="61" height="53" viewBox="0 0 61 53" fill="none" xmlns="http://www.w3.org/2000/svg">
<rect x="1.53036" y="3.53036" width="57.9393" height="41.4393" rx="3.7125" fill="white" stroke="#F5F5F5" stroke-width="1.06071"/>
<mask id="mask0" mask-type="alpha" maskUnits="userSpaceOnUse" x="1" y="3" width="59" height="43">
<rect x="1.53036" y="3.53036" width="57.9393" height="41.4393" rx="3.7125" fill="white" stroke="white" stroke-width="1.06071"/>
</mask>
<g mask="url(#mask0)">
<path fill-rule="evenodd" clip-rule="evenodd" d="M1 17.1667H60V3H1V17.1667Z" fill="#F0642F"/>
<path fill-rule="evenodd" clip-rule="evenodd" d="M1 45.5H60V31.3333H1V45.5Z" fill="#2DCC45"/>
<path fill-rule="evenodd" clip-rule="evenodd" d="M30.4999 29.9166C33.6032 29.9166 36.119 27.3796 36.119 24.25C36.119 21.1204 33.6032 18.5833 30.4999 18.5833C27.3966 18.5833 24.8809 21.1204 24.8809 24.25C24.8809 27.3796 27.3966 29.9166 30.4999 29.9166Z" fill="#E85C27"/>
</g>
</svg>
